X: 175
T: No_35_Cow_Creek_Hunting_Dance_Song_(b).krn
N: Derived from No_35_Cow_Creek_Hunting_Dance_Song_(b).krn
%%abc-version 2.0
%%abcx-abcm2ps-target-version 5.9.1 (29 Sep 2008)
%%abc-creator hum2abc beta
%%abcx-conversion-date 2019/03/15 08:38:45
%%humdrum-veritas 3400059019
%%humdrum-veritas-data 3987609673
%%linebreak <none>
%%barnumbers 0
L: 1/8
M: 2/4
K: F clef=bass
[K:clef=bass][M:2/4]z2CC ]|:  
D2(3CCC ||  
[M:3/4]C3CC2 ||  
[M:2/4]C4 | 
CC CA, | 
B,2A,2 | 
z3/ C/ C/A,3/ | 
A,3F, | 
A,F, F,E, | 
C,2C,2 | 
z C, C,3/B,/ | 
B,2B, z/ C/ | 
C/A,A,/ A,/F,3/ | 
A,/F,3/ F,/E,3/ ||  
[M:3/4]C,3/C,/C,2C,2 ||  
[M:2/4]F,F, E,E,/C,/ | 
C,2C,2 | 
[M:3/4]z3/ C,/C,2CC :|]  



